X: 1764
T: a Prize For The Ladies   #2
R: hornpipe, reel
%S: s:2 b:12(6+6)
O: Casey
B: O'Neill's 1850 #1764
Z: Bob Safranek, rjs@gsp.org
N: Compacted by using labels and play order [JC]
P: Play ABAB CBCB
M: C|
L: 1/8
K: G
((3DEF) \
|    GABG AGEG | c2ce dcAB |\
[1,3 GABG AGEG | AGAB A2 :|\
[2,4 Ggfe dcAc | B2G2 G2 :|
|: ((3DEF) \
|: GFGB d2(de) | fefg fe \
[1,3 d2 | edef edc2 | Bgfe dcBA :|\
[2,4 dc | dgfe dcAc | B2G2 G2 :|
